assets/icons/18px/outline/photo-18px.svg

<svg fill="none" height="18" width="18" xmlns="http://www.w3.org/2000/svg" xmlns:xlink="http://www.w3.org/1999/xlink"><clipPath id="a"><path d="m0 0h18v18h-18z"/></clipPath><g clip-path="url(#a)"><path d="m15.707 15.707.354.354zm0-13.414-.354.353zm-11.707.207h10v-1h-10zm-1.5 11.5v-10h-1v10zm11.5 1.5h-10v1h10zm1.5-11.5v10h1v-10zm-1.5 12.5c.457 0 .85.001 1.164-.041.328-.044.642-.143.897-.398l-.707-.707c-.038.038-.106.085-.323.114-.232.03-.546.032-1.031.032zm1.5-2.5c0 .486-.001.8-.032 1.03-.03.218-.076.286-.114.324l.707.707c.255-.255.354-.57.398-.897.042-.313.041-.707.041-1.164zm-14 0c0 .457-.001.85.041 1.164.044.328.144.642.398.897l.707-.707c-.038-.038-.085-.106-.114-.323-.03-.232-.032-.546-.032-1.031zm2.5 1.5c-.486 0-.8-.001-1.03-.032-.218-.03-.285-.076-.324-.114l-.707.707c.255.255.57.354.897.398.313.042.707.041 1.164.041zm10-13c.486 0 .8.001 1.03.032.218.03.286.076.324.114l.707-.707c-.255-.254-.57-.354-.897-.398-.314-.041-.707-.041-1.164-.041zm2.5 1.5c0-.457.001-.85-.041-1.164-.044-.328-.143-.642-.398-.897l-.707.707c.038.039.085.106.114.323.03.232.032.545.032 1.031zm-12.5-2.5c-.457 0-.85-.001-1.164.041-.328.044-.642.144-.897.398l.707.707c.039-.038.106-.085.323-.114.232-.03.545-.032 1.031-.032zm-1.5 2.5c0-.486.001-.8.032-1.03.03-.218.076-.285.114-.324l-.706-.706c-.254.255-.354.57-.398.897-.042.313-.042.706-.042 1.163z" fill="#fff"/><path d="m9 11.5-1.969-1.969c-.717-.717-1.075-1.075-1.515-1.06-.44.014-.774.395-1.44 1.157l-2.076 2.372m14-2.5-2.574-2.895c-.668-.752-1.002-1.128-1.44-1.14-.438-.013-.794.343-1.505 1.054l-2.981 2.981" stroke="#fff" stroke-linecap="round" stroke-linejoin="round"/></g></svg>

<svg fill="none" height="18" width="18" xmlns="http://www.w3.org/2000/svg"><clipPath id="a"><path d="M0 0h18v18H0z"/></clipPath><g clip-path="url(#a)"><path d="M15.707 15.707l.354.354zm0-13.414l-.354.353zM4 2.5h10v-1H4zM2.5 14V4h-1v10zM14 15.5H4v1h10zM15.5 4v10h1V4zM14 16.5c.457 0 .85.001 1.164-.041.328-.044.642-.143.897-.398l-.707-.707c-.038.038-.106.085-.323.114-.232.03-.546.032-1.031.032zm1.5-2.5c0 .486-.001.8-.032 1.03-.03.218-.076.286-.114.324l.707.707c.255-.255.354-.57.398-.897.042-.313.041-.707.041-1.164zm-14 0c0 .457-.001.85.041 1.164.044.328.144.642.398.897l.707-.707c-.038-.038-.085-.106-.114-.323-.03-.232-.032-.546-.032-1.031zM4 15.5c-.486 0-.8-.001-1.03-.032-.218-.03-.285-.076-.324-.114l-.707.707c.255.255.57.354.897.398.313.042.707.041 1.164.041zm10-13c.486 0 .8.001 1.03.032.218.03.286.076.324.114l.707-.707c-.255-.254-.57-.354-.897-.398C14.85 1.5 14.457 1.5 14 1.5zM16.5 4c0-.457.001-.85-.041-1.164-.044-.328-.143-.642-.398-.897l-.707.707c.038.039.085.106.114.323.03.232.032.545.032 1.031zM4 1.5c-.457 0-.85-.001-1.164.041-.328.044-.642.144-.897.398l.707.707c.039-.038.106-.085.323-.114.232-.03.545-.032 1.031-.032zM2.5 4c0-.486.001-.8.032-1.03.03-.218.076-.285.114-.324L1.94 1.94c-.254.255-.354.57-.398.897C1.5 3.15 1.5 3.543 1.5 4z" fill="currentColor"/><path d="M9 11.5L7.031 9.531c-.717-.717-1.075-1.075-1.515-1.06-.44.014-.774.395-1.44 1.157L2 12m14-2.5l-2.574-2.895c-.668-.752-1.002-1.128-1.44-1.14-.438-.013-.794.343-1.505 1.054L7.5 9.5" stroke="currentColor" stroke-linecap="round" stroke-linejoin="round"/></g></svg>
